icon-themes/breeze_svg/cmd/sc_glueescapedirectionright.svg

<svg viewBox="0 0 16 16" xmlns="http://www.w3.org/2000/svg"><path d="m2 2v12h5 6 1v-1-5-6zm1 1h10v5 5h-6-4zm7 3v1h-3v2h3v1l2-2z" fill="#4d4d4d"/><path d="m6 6c-1.1045692 0-2 .8954028-2 2s.8954307 2 2 2c1.10457 0 2-.8954028 2-2s-.89543-2-2-2zm0 1c.552285 0 1 .4477014 1 1s-.447715 1-1 1c-.5522843 0-1-.4477014-1-1s.4477157-1 1-1z" fill="#1d99f3"/></svg>

<svg xmlns="http://www.w3.org/2000/svg" viewBox="0 0 16 16">
 <path 
     style="fill:#4d4d4d" 
     d="M 2 2 L 2 14 L 7 14 L 13 14 L 14 14 L 14 13 L 14 8 L 14 2 L 2 2 z M 3 3 L 13 3 L 13 8 L 13 13 L 7 13 L 3 13 L 3 3 z M 10 6 L 10 7 L 7 7 L 7 9 L 10 9 L 10 10 L 12 8 L 10 6 z "
     />
 <path 
     style="fill:#1d99f3" 
     d="M 6 6 C 4.8954308 6 4 6.8954028 4 8 C 4 9.1045972 4.8954307 10 6 10 C 7.10457 10 8 9.1045972 8 8 C 8 6.8954028 7.10457 6 6 6 z M 6 7 C 6.552285 7 7 7.4477014 7 8 C 7 8.5522986 6.552285 9 6 9 C 5.4477157 9 5 8.5522986 5 8 C 5 7.4477014 5.4477157 7 6 7 z "
     />
 </svg>
